X: 1
T: Lieutenant MacGuire
M: 6/8
L: 1/8
R: jig
K: Bmin
f|\
B>BB d2e|f>BB f>BB|A>AA c2d|e>AA e>AA|\
B>BB d2e|f>BB f>BB|
f>ff edc|d>BB B2::\
c|\
d2e f>dd|a>dd f>dd|
d2e f>dd|e>cA ABc|\
d2e f>dd|a>dd f>dd|~f3 edc|d>BB B2::
f|\
B>BB BfB|BaB BfB|A>AA AeA|AfA AeA|
B>BB BfB|BaB BfB|f>ff edc|d>BB B2:|
